d1 $ sound "bd(<3 1>,8)"

d1 $ sound "bd*3"

d2 $ sound "hh hh*<1 4> hh [hh*<1 2 1 8>]"

d3 $ slow 2 $ sound "~ sd ~ [sd*<1 1 1 3>]"

d4 $ note "c3" #sound "supersquare" # gain 0.8 # legato 0.5
  + note "0 0 0 0"
  + note "<3 0>/2"

d5 $ fast 1 $
  off 0.25 (+ note "24") $
  sometimes (+ note "12") $
  note "c5" # sound "supersquare" # gain 0.6 # legato 0.5
  + note "0 <3 10> <5 0> <0 5 3 10>" # lpf 2000 # room 0.6



setcps(1)

hush
